X:80
C:Page 40
T:New Highland Man. MBe.80, The
S:Matthew Betham MS, Towcett Cumbria, 1815
O:England;Cumbria;Towcett
Z:VMP – Hugh Taylor, 2012
M:6/8
L:1/8
Q:3/8=120
R:.Jig
N:NB-These two notes are written as semiquavers.
K:D
“as written”F/E/|DED FDF|ABc d2 e|fed B2 d|”sic”F/E/ E2 E F|
DED FDF|ABc d2 e|fed B2 d|AF D D2:|
|:d|fed faf|ede d2 F|GAB AdF|”sic”FE E2 F g|
fed faf|ede d2 F|GAB GBA|FD D D2:|

